; generated by PrusaSlicer 2.3.0+win64 on 2022-03-16 at 13:37:23 UTC

; 

; external perimeters extrusion width = 0.50mm
; perimeters extrusion width = 0.50mm
; infill extrusion width = 0.80mm
; solid infill extrusion width = 0.80mm
; top infill extrusion width = 0.50mm
; first layer extrusion width = 0.50mm

M107
M190 S90 ; set bed temperature and wait for it to be reached
;TYPE:Custom
M104 S250 ; set extruder temp
; M140 S90 ; set bed temp
; M190 S90 ; wait for bed temp
M109 S250 ; wait for extruder temp

G28 ; home all axes
G92 E0
G1 E2
G92 E0
G1 F6000
G21 ; set units to millimeters
G90 ; use absolute coordinates
M83 ; use relative distances for extrusion
; Filament gcode
;LAYER_CHANGE
;Z:0.25
;HEIGHT:0.25
G1 Z0.250 F18000.000
G1 E-1.00000 F2400.000
G1 X59.756 Y61.508 F18000.000
G1 E1.00000 F2400.000
;TYPE:Skirt
;WIDTH:0.5
G1 F4500.000
G1 X63.851 Y57.861 E0.25439
G1 X68.138 Y54.443 E0.25439
G1 X72.605 Y51.262 E0.25439
G1 X77.238 Y48.328 E0.25439
G1 X82.023 Y45.651 E0.25439
G1 X86.181 Y43.591 E0.21526
G1 X90.406 Y41.734 E0.21411
G1 X94.712 Y40.073 E0.21411
G1 X99.113 Y38.602 E0.21526
G1 X103.553 Y37.342 E0.21411
G1 X108.070 Y36.281 E0.21526
G1 X112.607 Y35.433 E0.21411
G1 X117.202 Y34.790 E0.21526
G1 X122.490 Y34.315 E0.24634
G1 X127.797 Y34.119 E0.24634
G1 X181.150 Y34.113 E2.47519
G1 X186.929 Y34.280 E0.26820
G1 X192.664 Y34.775 E0.26705
G1 X198.361 Y35.596 E0.26705
G1 X204.003 Y36.741 E0.26705
G1 X209.593 Y38.212 E0.26820
G1 X215.067 Y39.994 E0.26705
G1 X220.431 Y42.084 E0.26705
G1 X225.666 Y44.477 E0.26705
G1 X230.756 Y47.164 E0.26705
G1 X235.685 Y50.138 E0.26705
G1 X240.437 Y53.388 E0.26705
G1 X245.014 Y56.919 E0.26820
G1 X249.363 Y60.690 E0.26705
G1 X253.491 Y64.702 E0.26705
G1 X257.399 Y68.963 E0.26820
G1 X261.041 Y73.420 E0.26705
G1 X264.367 Y77.996 E0.26245
G1 X267.445 Y82.773 E0.26360
G1 X270.236 Y87.693 E0.26245
G1 X272.759 Y92.784 E0.26360
G1 X274.990 Y98.010 E0.26360
G1 X276.916 Y103.329 E0.26245
G1 X278.547 Y108.772 E0.26360
G1 X279.865 Y114.273 E0.26245
G1 X280.966 Y120.478 E0.29237
G1 X281.681 Y126.765 E0.29352
G1 X281.988 Y132.538 E0.26820
G1 X282.016 Y140.527 E0.37063
G1 X281.845 Y145.908 E0.24979
G1 X281.387 Y151.273 E0.24979
G1 X280.643 Y156.606 E0.24979
G1 X279.621 Y161.867 E0.24864
G1 X278.407 Y166.755 E0.23368
G1 X276.951 Y171.577 E0.23368
G1 X275.256 Y176.320 E0.23368
G1 X273.326 Y180.973 E0.23368
G1 X271.166 Y185.524 E0.23368
G1 X268.782 Y189.961 E0.23368
G1 X266.180 Y194.273 E0.23368
G1 X263.380 Y198.430 E0.23253
G1 X246.555 Y221.048 E1.30778
G1 X243.627 Y224.679 E0.21642
G1 X240.265 Y228.491 E0.23579
G1 X236.030 Y232.852 E0.28201
G1 X233.316 Y235.430 E0.17365
G1 X230.758 Y237.706 E0.15886
G1 X225.390 Y242.073 E0.32103
G1 X219.812 Y246.078 E0.31857
G1 X215.405 Y248.904 E0.24289
G1 X210.031 Y251.999 E0.28770
G1 X204.544 Y254.771 E0.28519
G1 X199.646 Y256.947 E0.24864
G1 X193.981 Y259.146 E0.28194
G1 X188.089 Y261.070 E0.28753
G1 X182.942 Y262.474 E0.24749
G1 X176.839 Y263.822 E0.28997
G1 X170.747 Y264.819 E0.28637
G1 X165.447 Y265.421 E0.24749
G1 X159.333 Y265.817 E0.28421
G1 X153.135 Y265.879 E0.28756
G1 X147.829 Y265.671 E0.24634
G1 X141.655 Y265.127 E0.28756
G1 X135.517 Y264.244 E0.28767
G1 X130.281 Y263.226 E0.24749
G1 X123.951 Y261.662 E0.30248
G1 X117.601 Y259.696 E0.30839
G1 X114.446 Y258.570 E0.15541
G1 X111.149 Y257.272 E0.16437
G1 X105.874 Y254.968 E0.26705
G1 X99.804 Y251.910 E0.31532
G1 X93.973 Y248.525 E0.31281
G1 X89.057 Y245.298 E0.27281
G1 X86.108 Y243.196 E0.16799
G1 X83.443 Y241.166 E0.15541
G1 X78.560 Y237.114 E0.29440
G1 X74.212 Y233.085 E0.27498
G1 X70.519 Y229.339 E0.24404
G1 X66.622 Y224.973 E0.27149
G1 X64.369 Y222.232 E0.16462
G1 X61.939 Y219.067 E0.18514
G1 X47.638 Y199.838 E1.11171
G1 X44.891 Y195.916 E0.22217
G1 X42.104 Y191.484 E0.24289
G1 X39.562 Y186.936 E0.24174
G1 X37.258 Y182.262 E0.24174
G1 X35.198 Y177.476 E0.24174
G1 X33.389 Y172.589 E0.24174
G1 X31.834 Y167.616 E0.24174
G1 X30.532 Y162.545 E0.24289
G1 X29.500 Y157.438 E0.24174
G1 X28.676 Y151.816 E0.26360
G1 X28.171 Y146.181 E0.26245
G1 X27.991 Y141.296 E0.22677
G1 X28.002 Y132.996 E0.38509
G1 X28.227 Y127.988 E0.23253
G1 X28.699 Y122.999 E0.23253
G1 X29.419 Y118.038 E0.23253
G1 X30.379 Y113.144 E0.23138
G1 X31.712 Y107.825 E0.25439
G1 X33.333 Y102.587 E0.25439
G1 X35.235 Y97.444 E0.25439
G1 X37.414 Y92.412 E0.25439
G1 X39.863 Y87.506 E0.25439
G1 X42.575 Y82.740 E0.25439
G1 X45.528 Y78.149 E0.25324
G1 X48.741 Y73.705 E0.25439
G1 X52.189 Y69.441 E0.25439
G1 X55.865 Y65.372 E0.25439
G1 X59.713 Y61.550 E0.25161
G1 X60.029 Y61.869 F18000.000
G1 F4500.000
G1 X64.230 Y58.126 E0.26106
G1 X68.492 Y54.735 E0.25268
G1 X72.953 Y51.566 E0.25383
G1 X77.579 Y48.645 E0.25383
G1 X82.336 Y45.991 E0.25268
G1 X86.464 Y43.952 E0.21364
G1 X90.682 Y42.103 E0.21364
G1 X94.980 Y40.451 E0.21364
G1 X99.350 Y38.996 E0.21364
G1 X103.757 Y37.750 E0.21249
G1 X108.241 Y36.701 E0.21364
G1 X112.769 Y35.859 E0.21364
G1 X117.330 Y35.225 E0.21364
G1 X122.558 Y34.758 E0.24350
G1 X127.827 Y34.565 E0.24464
G1 X181.150 Y34.559 E2.47377
G1 X186.891 Y34.725 E0.26646
G1 X192.589 Y35.215 E0.26531
G1 X198.274 Y36.034 E0.26646
G1 X203.903 Y37.176 E0.26646
G1 X209.457 Y38.638 E0.26646
G1 X214.919 Y40.415 E0.26646
G1 X220.270 Y42.501 E0.26646
G1 X225.494 Y44.890 E0.26646
G1 X230.572 Y47.573 E0.26646
G1 X235.489 Y50.542 E0.26646
G1 X240.227 Y53.787 E0.26646
G1 X244.773 Y57.298 E0.26646
G1 X249.111 Y61.063 E0.26646
G1 X253.226 Y65.070 E0.26646
G1 X257.089 Y69.287 E0.26531
G1 X260.721 Y73.736 E0.26646
G1 X264.051 Y78.325 E0.26302
G1 X267.104 Y83.072 E0.26187
G1 X269.886 Y87.984 E0.26187
G1 X272.387 Y93.044 E0.26187
G1 X274.600 Y98.237 E0.26187
G1 X276.518 Y103.546 E0.26187
G1 X278.134 Y108.954 E0.26187
G1 X279.444 Y114.445 E0.26187
G1 X280.538 Y120.637 E0.29172
G1 X281.241 Y126.861 E0.29057
G1 X281.542 Y132.596 E0.26646
G1 X281.570 Y140.600 E0.37130
G1 X281.394 Y145.969 E0.24924
G1 X280.935 Y151.297 E0.24809
G1 X280.192 Y156.593 E0.24809
G1 X279.164 Y161.866 E0.24924
G1 X277.948 Y166.742 E0.23316
G1 X276.497 Y171.528 E0.23201
G1 X274.810 Y176.236 E0.23201
G1 X272.890 Y180.854 E0.23201
G1 X270.743 Y185.371 E0.23201
G1 X268.374 Y189.775 E0.23201
G1 X265.776 Y194.077 E0.23316
G1 X262.979 Y198.224 E0.23201
G1 X246.201 Y220.777 E1.30410
G1 X243.279 Y224.400 E0.21594
G1 X239.917 Y228.210 E0.23574
G1 X235.689 Y232.560 E0.28139
G1 X232.992 Y235.122 E0.17259
G1 X230.438 Y237.392 E0.15851
G1 X225.092 Y241.738 E0.31964
G1 X219.517 Y245.738 E0.31834
G1 X215.139 Y248.543 E0.24120
G1 X209.767 Y251.634 E0.28753
G1 X204.304 Y254.390 E0.28389
G1 X199.416 Y256.559 E0.24809
G1 X193.775 Y258.745 E0.28064
G1 X187.910 Y260.658 E0.28622
G1 X182.798 Y262.050 E0.24579
G1 X176.698 Y263.395 E0.28980
G1 X170.633 Y264.385 E0.28507
G1 X165.344 Y264.982 E0.24694
G1 X159.258 Y265.373 E0.28291
G1 X153.064 Y265.432 E0.28740
G1 X147.795 Y265.222 E0.24464
G1 X141.624 Y264.674 E0.28740
G1 X135.515 Y263.791 E0.28636
G1 X130.291 Y262.771 E0.24694
G1 X124.014 Y261.216 E0.29999
G1 X117.670 Y259.248 E0.30818
G1 X114.546 Y258.130 E0.15392
G1 X111.247 Y256.830 E0.16448
G1 X106.008 Y254.538 E0.26531
G1 X99.966 Y251.490 E0.31394
G1 X94.162 Y248.117 E0.31145
G1 X89.279 Y244.909 E0.27105
G1 X86.329 Y242.805 E0.16810
G1 X83.671 Y240.778 E0.15507
G1 X78.830 Y236.757 E0.29193
G1 X74.504 Y232.746 E0.27370
G1 X70.820 Y229.008 E0.24350
G1 X66.943 Y224.661 E0.27022
G1 X64.711 Y221.944 E0.16311
G1 X62.280 Y218.778 E0.18521
G1 X47.983 Y199.553 E1.11151
G1 X45.228 Y195.618 E0.22283
G1 X42.463 Y191.215 E0.24120
G1 X39.929 Y186.675 E0.24120
G1 X37.633 Y182.011 E0.24120
G1 X35.582 Y177.233 E0.24120
G1 X33.781 Y172.356 E0.24120
G1 X32.234 Y167.392 E0.24120
G1 X30.952 Y162.379 E0.24005
G1 X29.926 Y157.283 E0.24120
G1 X29.111 Y151.697 E0.26187
G1 X28.612 Y146.075 E0.26187
G1 X28.436 Y141.250 E0.22397
G1 X28.450 Y132.926 E0.38618
G1 X28.678 Y127.930 E0.23201
G1 X29.152 Y122.976 E0.23086
G1 X29.874 Y118.028 E0.23201
G1 X30.836 Y113.145 E0.23086
G1 X32.165 Y107.863 E0.25268
G1 X33.787 Y102.638 E0.25383
G1 X35.690 Y97.508 E0.25383
G1 X37.860 Y92.512 E0.25268
G1 X40.309 Y87.619 E0.25383
G1 X43.007 Y82.888 E0.25268
G1 X45.958 Y78.311 E0.25268
G1 X49.169 Y73.880 E0.25383
G1 X52.599 Y69.649 E0.25268
G1 X56.271 Y65.593 E0.25383
G1 X59.987 Y61.912 E0.24266
G1 E-1.00000 F2400.000
G1 X152.758 Y157.516 F18000.000
G1 E1.00000 F2400.000
;TYPE:Perimeter
G1 F4500.000
G1 X153.325 Y157.104 E0.03249
G1 X153.965 Y156.819 E0.03249
G1 X154.650 Y156.674 E0.03249
G1 X155.350 Y156.674 E0.03249
G1 X156.035 Y156.819 E0.03249
G1 X156.675 Y157.104 E0.03249
G1 X157.242 Y157.516 E0.03249
G1 X157.710 Y158.036 E0.03249
G1 X158.060 Y158.643 E0.03249
G1 X158.277 Y159.309 E0.03249
G1 X158.350 Y160.006 E0.03249
G1 X158.277 Y160.702 E0.03249
G1 X158.060 Y161.368 E0.03249
G1 X157.710 Y161.975 E0.03249
G1 X157.242 Y162.495 E0.03249
G1 X156.675 Y162.907 E0.03249
G1 X156.035 Y163.192 E0.03249
G1 X155.350 Y163.337 E0.03249
G1 X154.650 Y163.337 E0.03249
G1 X153.965 Y163.192 E0.03249
G1 X153.325 Y162.907 E0.03249
G1 X152.758 Y162.495 E0.03249
G1 X152.290 Y161.975 E0.03249
G1 X151.940 Y161.368 E0.03249
G1 X151.723 Y160.702 E0.03249
G1 X151.650 Y160.006 E0.03249
G1 X151.723 Y159.309 E0.03249
G1 X151.940 Y158.643 E0.03249
G1 X152.290 Y158.036 E0.03249
G1 X152.718 Y157.560 E0.02971
G1 X153.050 Y157.859 F18000.000
G1 F4500.000
G1 X153.549 Y157.493 E0.02873
G1 X154.103 Y157.246 E0.02814
G1 X154.697 Y157.120 E0.02814
G1 X155.303 Y157.120 E0.02814
G1 X155.897 Y157.246 E0.02814
G1 X156.451 Y157.493 E0.02814
G1 X156.941 Y157.849 E0.02814
G1 X157.347 Y158.300 E0.02814
G1 X157.650 Y158.825 E0.02814
G1 X157.838 Y159.402 E0.02814
G1 X157.901 Y160.006 E0.02814
G1 X157.838 Y160.609 E0.02814
G1 X157.650 Y161.186 E0.02814
G1 X157.347 Y161.711 E0.02814
G1 X156.941 Y162.162 E0.02814
G1 X156.451 Y162.518 E0.02814
G1 X155.897 Y162.765 E0.02814
G1 X155.303 Y162.891 E0.02814
G1 X154.697 Y162.891 E0.02814
G1 X154.103 Y162.765 E0.02814
G1 X153.549 Y162.518 E0.02814
G1 X153.059 Y162.162 E0.02814
G1 X152.653 Y161.711 E0.02814
G1 X152.350 Y161.186 E0.02814
G1 X152.162 Y160.609 E0.02814
G1 X152.099 Y160.006 E0.02814
G1 X152.162 Y159.402 E0.02814
G1 X152.350 Y158.825 E0.02814
G1 X152.653 Y158.300 E0.02814
G1 X153.010 Y157.904 E0.02475
G1 X153.341 Y158.202 F18000.000
;TYPE:External perimeter
G1 F4500.000
G1 X153.774 Y157.882 E0.02497
G1 X154.242 Y157.673 E0.02379
G1 X154.744 Y157.566 E0.02379
G1 X155.256 Y157.566 E0.02379
G1 X155.758 Y157.673 E0.02379
G1 X156.226 Y157.882 E0.02379
G1 X156.641 Y158.183 E0.02379
G1 X156.984 Y158.564 E0.02379
G1 X157.240 Y159.008 E0.02379
G1 X157.399 Y159.496 E0.02379
G1 X157.452 Y160.006 E0.02379
G1 X157.399 Y160.515 E0.02379
G1 X157.240 Y161.003 E0.02379
G1 X156.984 Y161.447 E0.02379
G1 X156.641 Y161.828 E0.02379
G1 X156.226 Y162.129 E0.02379
G1 X155.758 Y162.338 E0.02379
G1 X155.256 Y162.445 E0.02379
G1 X154.744 Y162.445 E0.02379
G1 X154.242 Y162.338 E0.02379
G1 X153.774 Y162.129 E0.02378
G1 X153.359 Y161.828 E0.02379
G1 X153.016 Y161.447 E0.02379
G1 X152.760 Y161.003 E0.02379
G1 X152.601 Y160.515 E0.02379
G1 X152.548 Y160.006 E0.02379
G1 X152.601 Y159.496 E0.02379
G1 X152.760 Y159.008 E0.02379
G1 X153.016 Y158.564 E0.02379
G1 X153.301 Y158.247 E0.01979
G1 X153.255 Y157.812 F18000.000
G1 E-1.00000 F2400.000
G1 X151.766 Y161.961 F18000.000
G1 E1.00000 F2400.000
;TYPE:Perimeter
G1 F4500.000
G1 X151.927 Y162.238 E0.01488
G1 X152.396 Y162.760 E0.03256
G1 X152.296 Y162.929 E0.00912
G1 X151.500 Y162.743 E0.03795
G1 X150.921 Y162.560 E0.02814
G1 X151.717 Y161.995 E0.04527
G1 E-1.00000 F2400.000
G1 X157.604 Y162.760 F18000.000
G1 E1.00000 F2400.000
G1 F4500.000
G1 X158.073 Y162.238 E0.03256
G1 X158.234 Y161.961 E0.01488
G1 X159.079 Y162.560 E0.04805
G1 X158.500 Y162.743 E0.02814
G1 X157.704 Y162.929 E0.03795
G1 X157.634 Y162.812 E0.00634
G1 E-1.00000 F2400.000
G1 X140.765 Y137.770 F18000.000
G1 E1.00000 F2400.000
G1 F4500.000
G1 X131.110 Y137.770 E0.44788
G1 X131.110 Y137.241 E0.02455
G1 X140.765 Y137.241 E0.44788
G1 X140.765 Y137.710 E0.02177
G1 X141.211 Y138.216 F18000.000
G1 F4500.000
G1 X130.664 Y138.216 E0.48930
G1 X130.664 Y136.795 E0.06597
G1 X141.211 Y136.795 E0.48930
G1 X141.211 Y138.156 E0.06318
G1 E-1.00000 F2400.000
G1 X169.235 Y137.770 F18000.000
G1 E1.00000 F2400.000
G1 F4500.000
G1 X169.235 Y137.241 E0.02455
G1 X178.890 Y137.241 E0.44788
G1 X178.890 Y137.770 E0.02455
G1 X169.295 Y137.770 E0.44510
G1 X168.789 Y138.216 F18000.000
G1 F4500.000
G1 X168.789 Y136.795 E0.06597
G1 X179.336 Y136.795 E0.48930
G1 X179.336 Y138.216 E0.06597
G1 X168.849 Y138.216 E0.48652
G1 X168.849 Y138.663 F18000.000
G1 F4500.000
G1 X168.657 Y138.663 E0.00890
G1 X168.657 Y149.980 E0.52502
G1 X168.616 Y151.051 E0.04973
G1 X168.496 Y152.090 E0.04853
G1 X168.297 Y153.117 E0.04853
G1 X168.020 Y154.126 E0.04853
G1 X167.666 Y155.110 E0.04853
G1 X167.238 Y156.065 E0.04853
G1 X166.739 Y156.984 E0.04853
G1 X166.170 Y157.862 E0.04853
G1 X165.536 Y158.694 E0.04853
G1 X164.840 Y159.475 E0.04853
G1 X164.086 Y160.201 E0.04853
G1 X163.279 Y160.866 E0.04853
G1 X162.423 Y161.468 E0.04853
G1 X161.524 Y162.003 E0.04853
G1 X160.586 Y162.467 E0.04853
G1 X159.616 Y162.858 E0.04853
G1 X158.619 Y163.174 E0.04853
G1 X157.600 Y163.412 E0.04853
G1 X156.566 Y163.572 E0.04853
G1 X155.523 Y163.652 E0.04853
G1 X154.477 Y163.652 E0.04853
G1 X153.434 Y163.572 E0.04853
G1 X152.400 Y163.412 E0.04853
G1 X151.381 Y163.174 E0.04853
G1 X150.384 Y162.858 E0.04853
G1 X149.414 Y162.467 E0.04853
G1 X148.476 Y162.003 E0.04853
G1 X147.577 Y161.468 E0.04853
G1 X146.721 Y160.866 E0.04853
G1 X145.914 Y160.201 E0.04853
G1 X145.160 Y159.475 E0.04853
G1 X144.464 Y158.694 E0.04853
G1 X143.830 Y157.862 E0.04853
G1 X143.261 Y156.984 E0.04853
G1 X142.762 Y156.065 E0.04853
G1 X142.334 Y155.110 E0.04853
G1 X141.980 Y154.126 E0.04853
G1 X141.703 Y153.117 E0.04853
G1 X141.504 Y152.090 E0.04853
G1 X141.384 Y151.051 E0.04853
G1 X141.343 Y149.980 E0.04973
G1 X141.343 Y138.663 E0.52502
G1 X130.218 Y138.663 E0.51612
G1 X130.218 Y136.348 E0.10738
G1 X141.657 Y136.348 E0.53071
G1 X141.657 Y150.033 E0.63488
G1 X141.701 Y151.100 E0.04953
G1 X141.836 Y152.187 E0.05081
G1 X142.059 Y153.259 E0.05081
G1 X142.369 Y154.309 E0.05081
G1 X142.765 Y155.330 E0.05081
G1 X143.243 Y156.316 E0.05081
G1 X143.800 Y157.259 E0.05081
G1 X144.432 Y158.153 E0.05081
G1 X145.136 Y158.992 E0.05084
G1 X145.917 Y159.780 E0.05147
G1 X146.737 Y160.483 E0.05011
G1 X147.624 Y161.126 E0.05081
G1 X148.561 Y161.693 E0.05081
G1 X150.163 Y162.492 E0.08302
G1 X150.124 Y162.579 E0.00444
G1 X151.524 Y161.585 E0.07967
G1 X151.352 Y160.227 E0.06351
G1 X151.354 Y159.750 E0.02211
G1 X151.419 Y159.278 E0.02211
G1 X151.544 Y158.818 E0.02211
G1 X151.728 Y158.378 E0.02211
G1 X151.967 Y157.966 E0.02211
G1 X152.258 Y157.589 E0.02211
G1 X152.596 Y157.253 E0.02211
G1 X152.975 Y156.963 E0.02211
G1 X153.388 Y156.726 E0.02211
G1 X153.829 Y156.544 E0.02211
G1 X154.289 Y156.421 E0.02211
G1 X154.762 Y156.359 E0.02211
G1 X155.238 Y156.359 E0.02211
G1 X155.711 Y156.421 E0.02211
G1 X156.171 Y156.544 E0.02211
G1 X156.612 Y156.726 E0.02211
G1 X157.025 Y156.963 E0.02211
G1 X157.404 Y157.253 E0.02211
G1 X157.742 Y157.589 E0.02211
G1 X158.033 Y157.966 E0.02211
G1 X158.272 Y158.379 E0.02211
G1 X158.456 Y158.818 E0.02211
G1 X158.581 Y159.278 E0.02211
G1 X158.646 Y159.750 E0.02211
G1 X158.648 Y160.227 E0.02211
G1 X158.476 Y161.585 E0.06351
G1 X159.876 Y162.579 E0.07967
G1 X159.837 Y162.492 E0.00444
G1 X161.439 Y161.693 E0.08302
G1 X162.376 Y161.126 E0.05081
G1 X163.263 Y160.483 E0.05081
G1 X164.094 Y159.771 E0.05081
G1 X164.864 Y158.992 E0.05081
G1 X165.568 Y158.153 E0.05081
G1 X166.200 Y157.259 E0.05081
G1 X166.757 Y156.316 E0.05081
G1 X167.235 Y155.330 E0.05081
G1 X167.631 Y154.309 E0.05081
G1 X167.941 Y153.259 E0.05081
G1 X168.164 Y152.187 E0.05081
G1 X168.299 Y151.100 E0.05081
G1 X168.343 Y150.033 E0.04953
G1 X168.343 Y136.348 E0.63488
G1 X179.782 Y136.348 E0.53071
G1 X179.782 Y138.663 E0.10738
G1 X168.909 Y138.663 E0.50444
G1 X169.104 Y139.109 F18000.000
G1 F4500.000
G1 X169.104 Y149.988 E0.50471
G1 X169.062 Y151.085 E0.05092
G1 X168.938 Y152.158 E0.05012
